packages/core/src/svgs/gxc.svg

<svg width="24" height="24" viewBox="0 0 24 24" fill="none" xmlns="http://www.w3.org/2000/svg">
<g clip-path="url(#clip0_31_11180)">
<path d="M0 0H24V24H0V0Z" fill="#538BE8"/>
<path fill-rule="evenodd" clip-rule="evenodd" d="M5.80187 5.89088C6.48887 5.13573 7.6773 4.93602 8.59273 5.36716C8.83945 5.48263 9.06354 5.64127 9.25444 5.83559C10.1755 6.73979 11.0888 7.65182 11.9943 8.57159C12.44 8.14173 12.8754 7.70159 13.3109 7.26231C13.8217 6.74631 14.3322 6.23073 14.8589 5.73188C15.7829 4.87431 17.3904 4.97288 18.2202 5.91531C19.0623 6.78573 19.0687 8.3153 18.2287 9.18959C17.3022 10.1324 16.3653 11.0654 15.4284 11.9984C15.8056 12.382 16.187 12.7613 16.5684 13.141C17.1343 13.6999 17.6936 14.2654 18.2463 14.8373C19.112 15.7386 19.0426 17.3307 18.1327 18.1763C17.363 18.958 16.0439 19.0742 15.1302 18.4823C14.9309 18.3597 14.7663 18.1943 14.6022 18.0293C14.561 17.9882 14.5199 17.9466 14.4779 17.9063C14.0043 17.4352 13.5323 16.9624 13.0619 16.4882C12.7109 16.1359 12.3607 15.7836 12.0089 15.4326C11.5932 15.8354 11.1843 16.246 10.7759 16.6562C10.2273 17.2064 9.67959 17.7563 9.11473 18.2899C8.17359 19.1436 6.55101 19.0124 5.73973 18.0413C5.01287 17.2484 4.9473 15.9542 5.55544 15.0747C5.66559 14.9123 5.80401 14.7734 5.94201 14.635L6.05216 14.5236C6.77644 13.7856 7.5093 13.0562 8.2473 12.331L8.42687 12.511C8.71101 12.796 8.99516 13.081 9.2823 13.3639C8.95787 13.696 8.6283 14.0226 8.2983 14.3496C7.7973 14.8467 7.2963 15.3434 6.81416 15.8586C6.46144 16.2327 6.58059 16.8692 6.9543 17.1842C7.17544 17.3903 7.50416 17.437 7.7913 17.3714C8.06516 17.2909 8.27087 17.0873 8.46973 16.8902L8.55459 16.8066C8.93516 16.4217 9.31744 16.0386 9.69973 15.655C10.1206 15.2329 10.5414 14.8103 10.9597 14.3869C10.2715 13.6961 9.58197 13.0066 8.89101 12.3186C7.85373 11.2877 6.82115 10.2521 5.7933 9.21188C4.92159 8.33545 4.93144 6.76473 5.80187 5.89088ZM6.78201 7.00088C6.52444 7.3583 6.5373 7.90945 6.8763 8.21202C7.38373 8.74259 7.90487 9.26073 8.42516 9.77845C8.81944 10.1706 9.2133 10.5627 9.60159 10.96C9.85873 10.7179 10.1082 10.4667 10.3567 10.2156C10.556 10.0142 10.7553 9.81359 10.9589 9.61688L10.7814 9.43773C9.94035 8.58414 9.09376 7.73598 8.24173 6.8933C8.09545 6.74856 7.90861 6.65171 7.70601 6.61559C7.35759 6.54702 6.98301 6.71245 6.78201 7.00088ZM13.0306 9.61602C13.9432 8.69662 14.8606 7.78203 15.7829 6.87231C15.98 6.68802 16.2526 6.58173 16.5234 6.60231C16.7862 6.62802 17.042 6.76131 17.1997 6.97645C17.3973 7.24645 17.4526 7.62145 17.3223 7.93216C17.2679 8.06502 17.168 8.17002 17.0694 8.27288L17.0382 8.30631C16.5854 8.77852 16.1247 9.24316 15.6564 9.70002C15.2343 10.1166 14.8126 10.5327 14.4024 10.9604C14.0907 10.6654 13.7839 10.365 13.4823 10.0596L13.361 9.9383C13.0224 10.2863 12.6796 10.6309 12.3324 10.9707C13.5646 12.2149 14.8049 13.4513 16.0452 14.6882L16.8719 15.5123C17.1204 15.7489 17.3682 16.0334 17.402 16.3896C17.4106 16.6772 17.2974 16.9763 17.0712 17.1606C16.7339 17.4537 16.1617 17.4974 15.8326 17.1683C15.1336 16.5083 14.4586 15.8234 13.784 15.139C13.5354 14.887 13.2869 14.635 13.0379 14.3847C13.2487 14.1786 13.4566 13.969 13.6644 13.7599C13.796 13.627 13.9276 13.4942 14.0604 13.3626C13.8144 13.1239 13.5723 12.8809 13.3302 12.6383C13.2282 12.5354 13.1266 12.4334 13.0242 12.3314C12.8544 12.5029 12.6839 12.6734 12.5129 12.844C12.3414 13.0142 12.1709 13.1847 12.0012 13.3562C11.5627 12.9062 11.1127 12.4682 10.6623 12.0297L10.6379 12.0057C11.4386 11.2124 12.2362 10.4158 13.0306 9.61602Z" fill="white"/>
</g>
<defs>
<clipPath id="clip0_31_11180">
<rect width="24" height="24" fill="white"/>
</clipPath>
</defs>
</svg>

<svg xmlns="http://www.w3.org/2000/svg" width="24" height="24" fill="none" viewBox="0 0 24 24"><g clip-path="url(#a)"><path fill="#538BE8" d="M0 0h24v24H0z"/><path fill="#fff" fill-rule="evenodd" d="M5.802 5.89c.687-.754 1.875-.954 2.79-.523.247.116.472.274.662.469q1.383 1.356 2.74 2.736c.446-.43.881-.87 1.317-1.31a68 68 0 0 1 1.548-1.53c.924-.858 2.531-.76 3.361.183.842.87.849 2.4.009 3.275a367 367 0 0 1-2.8 2.808q.566.574 1.14 1.143.848.838 1.677 1.696c.866.902.797 2.494-.113 3.34-.77.781-2.09.897-3.003.305-.2-.122-.364-.288-.528-.453l-.124-.123q-.711-.706-1.416-1.418-.526-.528-1.053-1.055c-.416.402-.825.813-1.233 1.223-.549.55-1.096 1.1-1.661 1.634-.941.854-2.564.722-3.375-.249-.727-.793-.793-2.087-.185-2.966.11-.163.249-.302.387-.44l.11-.111q1.087-1.106 2.195-2.193l.18.18q.425.428.855.853-.488.497-.984.986c-.5.497-1.002.993-1.484 1.509-.353.374-.233 1.01.14 1.325.221.206.55.253.837.187.274-.08.48-.284.679-.48l.085-.084q.57-.577 1.145-1.152l1.26-1.268q-1.033-1.035-2.069-2.068a484 484 0 0 1-3.098-3.107c-.871-.877-.862-2.447.009-3.321M6.782 7c-.258.358-.245.91.094 1.212.508.53 1.029 1.049 1.55 1.566q.591.588 1.176 1.182c.257-.242.506-.493.755-.744q.297-.303.602-.6l-.178-.178a278 278 0 0 0-2.54-2.545 1 1 0 0 0-.535-.277.94.94 0 0 0-.924.385m6.249 2.616q1.369-1.38 2.752-2.744a1 1 0 0 1 .74-.27.96.96 0 0 1 .677.374c.197.27.253.645.122.956-.054.133-.154.238-.253.34l-.03.034q-.68.709-1.383 1.394c-.422.417-.843.833-1.254 1.26a38 38 0 0 1-.92-.9l-.121-.122q-.508.522-1.029 1.033c1.233 1.244 2.473 2.48 3.713 3.717l.827.824c.248.237.496.521.53.878a.96.96 0 0 1-.33.77c-.338.294-.91.337-1.24.008-.698-.66-1.373-1.345-2.048-2.029q-.373-.378-.746-.754.315-.31.626-.625l.396-.397q-.368-.36-.73-.725l-.306-.307-.511.513q-.258.255-.512.512c-.438-.45-.888-.888-1.339-1.326l-.024-.024q1.2-1.19 2.393-2.39" clip-rule="evenodd"/></g><defs><clipPath id="a"><path fill="#fff" d="M0 0h24v24H0z"/></clipPath></defs></svg>
